public/static/icons/navbar/ic_editor.svg

<svg height="24" viewBox="0 0 24 24" width="24" xmlns="http://www.w3.org/2000/svg"><g transform="translate(2 2)"><path d="m.5859375 3.515625c.32359375 0 .5859375-.26234375.5859375-.5859375v-1.7578125h1.7578125c.32359375 0 .5859375-.26234375.5859375-.5859375s-.26234375-.5859375-.5859375-.5859375h-2.34375c-.32359375 0-.5859375.26234375-.5859375.5859375v2.34375c0 .32359375.26234375.5859375.5859375.5859375zm2.34375 15.3125h-1.7578125v-1.7578125c0-.3235938-.26234375-.5859375-.5859375-.5859375s-.5859375.2623437-.5859375.5859375v2.34375c0 .3235938.26234375.5859375.5859375.5859375h2.34375c.32359375 0 .5859375-.2623437.5859375-.5859375s-.26234375-.5859375-.5859375-.5859375zm16.484375-2.34375c-.3235938 0-.5859375.2623437-.5859375.5859375v1.7578125h-1.7578125c-.3235938 0-.5859375.2623437-.5859375.5859375s.2623437.5859375.5859375.5859375h2.34375c.3235938 0 .5859375-.2623437.5859375-.5859375v-2.34375c0-.3235938-.2623437-.5859375-.5859375-.5859375zm0-16.484375h-2.34375c-.3235938 0-.5859375.26234375-.5859375.5859375s.2623437.5859375.5859375.5859375h1.7578125v1.7578125c0 .32359375.2623437.5859375.5859375.5859375s.5859375-.26234375.5859375-.5859375v-2.34375c0-.32359375-.2623437-.5859375-.5859375-.5859375z" opacity=".48"/><path d="m16.3620555 8.36255234v-3.8172333c0-.30116153-.2441575-.54531904-.5453191-.54531904h-11.63347285c-.30116153 0-.54531904.24415751-.54531904.54531904v3.8172333c0 .30116153.24415751.54531904.54531904.54531904s.54531904-.24415751.54531904-.54531904v-.54531905c0-.30065256.24463013-.54531904.54531905-.54531904h3.09014123v7.63744765h-.54531904c-.30116153 0-.54531904.2441575-.54531904.5453191 0 .3011615.24415751.545319.54531904.545319h4.36255237c.3011615 0 .545319-.2441575.545319-.545319 0-.3011616-.2441575-.5453191-.545319-.5453191h-.5453191v-7.63744765h3.0901413c.3006889 0 .545319.24466648.545319.54531904v.54531905c0 .30116153.2441575.54531904.545319.54531904.3011616 0 .5453191-.24415751.5453191-.54531904z"/></g></svg>

<svg xmlns="http://www.w3.org/2000/svg" width="24" height="24" viewBox="0 0 24 24">
  <g transform="translate(2 2)">
    <path d="M.5859375 3.515625C.90953125 3.515625 1.171875 3.25328125 1.171875 2.9296875L1.171875 1.171875 2.9296875 1.171875C3.25328125 1.171875 3.515625.90953125 3.515625.5859375 3.515625.26234375 3.25328125 0 2.9296875 0L.5859375 0C.26234375 0 0 .26234375 0 .5859375L0 2.9296875C0 3.25328125.26234375 3.515625.5859375 3.515625zM2.9296875 18.828125L1.171875 18.828125 1.171875 17.0703125C1.171875 16.7467187.90953125 16.484375.5859375 16.484375.26234375 16.484375 0 16.7467187 0 17.0703125L0 19.4140625C0 19.7376563.26234375 20 .5859375 20L2.9296875 20C3.25328125 20 3.515625 19.7376563 3.515625 19.4140625 3.515625 19.0904687 3.25328125 18.828125 2.9296875 18.828125zM19.4140625 16.484375C19.0904687 16.484375 18.828125 16.7467187 18.828125 17.0703125L18.828125 18.828125 17.0703125 18.828125C16.7467187 18.828125 16.484375 19.0904687 16.484375 19.4140625 16.484375 19.7376563 16.7467187 20 17.0703125 20L19.4140625 20C19.7376563 20 20 19.7376563 20 19.4140625L20 17.0703125C20 16.7467187 19.7376563 16.484375 19.4140625 16.484375zM19.4140625 0L17.0703125 0C16.7467187 0 16.484375.26234375 16.484375.5859375 16.484375.90953125 16.7467187 1.171875 17.0703125 1.171875L18.828125 1.171875 18.828125 2.9296875C18.828125 3.25328125 19.0904687 3.515625 19.4140625 3.515625 19.7376563 3.515625 20 3.25328125 20 2.9296875L20 .5859375C20 .26234375 19.7376563 0 19.4140625 0z" opacity=".48"/>
    <path d="M16.3620555,8.36255234 L16.3620555,4.54531904 C16.3620555,4.24415751 16.117898,4 15.8167364,4 L4.18326355,4 C3.88210202,4 3.63794451,4.24415751 3.63794451,4.54531904 L3.63794451,8.36255234 C3.63794451,8.66371387 3.88210202,8.90787138 4.18326355,8.90787138 C4.48442508,8.90787138 4.72858259,8.66371387 4.72858259,8.36255234 L4.72858259,7.81723329 C4.72858259,7.51658073 4.97321272,7.27191425 5.27390164,7.27191425 L8.36404287,7.27191425 L8.36404287,14.9093619 L7.81872383,14.9093619 C7.5175623,14.9093619 7.27340479,15.1535194 7.27340479,15.454681 C7.27340479,15.7558425 7.5175623,16 7.81872383,16 L12.1812762,16 C12.4824377,16 12.7265952,15.7558425 12.7265952,15.454681 C12.7265952,15.1535194 12.4824377,14.9093619 12.1812762,14.9093619 L11.6359571,14.9093619 L11.6359571,7.27191425 L14.7260984,7.27191425 C15.0267873,7.27191425 15.2714174,7.51658073 15.2714174,7.81723329 L15.2714174,8.36255234 C15.2714174,8.66371387 15.5155749,8.90787138 15.8167364,8.90787138 C16.117898,8.90787138 16.3620555,8.66371387 16.3620555,8.36255234 Z"/>
  </g>
</svg>
